X:1
T:Great Jehovah, Mighty Lord
T:Great Jehovah, Mighty Lord
T:Ira David Sankey
T:Frances Jane (Fanny) Crosby, 1891
T:Public Domain Courtesy of the Cyber Hymnal™
C:Ira David Sankey
Z:Public Domain
Z:Courtesy of the Cyber Hymnal™
%%score ( 1 2 ) ( 3 4 )
L:1/8
Q:1/4=112
M:4/4
K:Bb
V:1 treble 
V:2 treble 
V:3 bass 
V:4 bass 
V:1
 [DF]2 [FB]2 [EB]2 [EA]2 | (F[CA]) (ce) ([Fe]2 [Fd]2) | [EG]2 [EB]2 [DF]2 [Fd]2 | (dc) (cG) c4 | %4
w: 1.~Great Je- ho- vah,|might- * y * Lord, *|Vast and bound- less|is * Thy * Word;|
w: 2.~Jew and Gen- tile,|bond * and * free, *|All shall yet be|one * in * Thee;|
w: 3.~From her night shall|Chi- * na * wake, *|Af- ric’s sons their|chains * shall * break;|
w: 4.~In- dia’s groves of|palms * so * fair *|Shall re- sound with|praise * and * prayer;|
w: 5.~North and South shall|own * Thy * sway; *|East and West Thy|voice * o- * bey;|
 [DF]2 [FB]2 [EB]2 [EA]2 | (F[CA]) (ce) ([Fe]2 [Fd]2) | G2 [Ge]2 [Fd]2 [Ec]2 | (BA) (GA) [DB]4 |] %8
w: King of kings, from|shore * to * shore *|Thou shalt reign for-|ev- * er- * more.|
w: All con- fess Mes-|si- * ah’s * name, *|All His wond- rous|love * pro- * claim.|
w: E- gypt, where Thy|peo- * ple * trod, *|Shall a- dore and|praise * our * God.|
w: Cey- lon’s isle with|joy * shall * sing, *|Glor- y be to|Christ * our * king.|
w: Crowns and thrones be-|fore * Thee * fall, *|King of kings and|Lord * of * all.|
V:2
 x8 | x2 E2 x4 | x8 | =E2 E2 (F2 _E2) | x8 | x2 F2 x4 | x8 | E2 E2 x4 |] %8
V:3
 [B,,B,]2 [D,B,]2 [F,C]2 [F,C]2 | (A,F,) (A,C) ([A,C]2 B,2) | [E,B,]2 [G,B,]2 B,2 [B,,B,]2 | %3
 [C,B,]2 (G,B,) [F,,F,A,]4 | [B,,B,]2 [D,B,]2 [F,C]2 [F,C]2 | (A,F,) (A,C) ([A,C]2 B,2) | %6
 [E,B,]2 [C,A,]2 [D,B,]2 [E,G,]2 | [F,C]2 F,2 [B,,F,]4 |] %8
V:4
 x8 | F,2 F,2 x4 | x8 | x2 C,2 x4 | x8 | F,2 F,2 x4 | x8 | x2 F,2 x4 |] %8

